gama.ui.shared/icons_svg/light/viewers/delete.column.svg

<svg height="25" viewBox="-871.769 -3452.889 25 25" width="25" xmlns="http://www.w3.org/2000/svg"><g fill="none"><path d="m-867.4295-3452.389h16.32c2.1207 0 3.84 1.719 3.84 3.84v16.32c0 2.1207-1.7193 3.84-3.84 3.84h-16.32c-2.1208 0-3.84-1.7193-3.84-3.84v-16.32c0-2.121 1.7192-3.84 3.84-3.84z" fill="#fff"/><path d="m-867.4295-3452.389h16.32c2.1207 0 3.84 1.719 3.84 3.84v16.32c0 2.1207-1.7193 3.84-3.84 3.84h-16.32c-2.1208 0-3.84-1.7193-3.84-3.84v-16.32c0-2.121 1.7192-3.84 3.84-3.84z" stroke="#000" stroke-linecap="round" stroke-linejoin="round" stroke-width=".25"/><path d="m-861.2695-3445.889v11c0 .83.67 1.5 1.5 1.5h1c.83 0 1.5-.67 1.5-1.5v-11c0-.83-.67-1.5-1.5-1.5h-1c-.83 0-1.5.67-1.5 1.5zm-1 0c0-1.38 1.12-2.5 2.5-2.5h1c1.38 0 2.5 1.12 2.5 2.5v11c0 1.38-1.12 2.5-2.5 2.5h-1c-1.38 0-2.5-1.12-2.5-2.5z" fill="#66727e"/><path d="m-859.2163-3441.179 4.1418-4.1318c.1996-.1996.5089-.1996.7085 0 .1996.1998.1996.509 0 .7088l-4.1417 4.1415 4.1417 4.1417c.1996.1998.1996.509 0 .7088-.1996.1994-.5089.1994-.7085 0l-4.1418-4.142-4.1417 4.122c-.1996.1995-.509.1995-.7086 0-.1996-.1997-.1996-.509 0-.7087l4.1418-4.1417-4.1318-4.1316c-.1996-.1898-.1996-.509 0-.6988.1896-.1996.509-.1996.6986 0l4.1417 4.1418z" fill="#9f4c4d"/></g></svg>

<?xml version="1.0" encoding="UTF-8" standalone="no"?>
<!DOCTYPE svg PUBLIC "-//W3C//DTD SVG 1.1//EN" "http://www.w3.org/Graphics/SVG/1.1/DTD/svg11.dtd">
<svg xmlns:dc="http://purl.org/dc/elements/1.1/" xmlns:xl="http://www.w3.org/1999/xlink" version="1.1" xmlns="http://www.w3.org/2000/svg" viewBox="-871.7695 -3452.889 25 25" width="25" height="25">
  <defs/>
  <g id="SOURCES" stroke-dasharray="none" stroke="none" stroke-opacity="1" fill="none" fill-opacity="1">
    <title>SOURCES</title>
    <g id="SOURCES_Calque_2">
      <title>Calque 2</title>
      <g id="Graphic_9889">
        <path d="M -867.4295 -3452.389 L -851.1095 -3452.389 C -848.9888 -3452.389 -847.2695 -3450.67 -847.2695 -3448.549 L -847.2695 -3432.229 C -847.2695 -3430.1083 -848.9888 -3428.389 -851.1095 -3428.389 L -867.4295 -3428.389 C -869.5503 -3428.389 -871.2695 -3430.1083 -871.2695 -3432.229 L -871.2695 -3448.549 C -871.2695 -3450.67 -869.5503 -3452.389 -867.4295 -3452.389 Z" fill="white"/>
        <path d="M -867.4295 -3452.389 L -851.1095 -3452.389 C -848.9888 -3452.389 -847.2695 -3450.67 -847.2695 -3448.549 L -847.2695 -3432.229 C -847.2695 -3430.1083 -848.9888 -3428.389 -851.1095 -3428.389 L -867.4295 -3428.389 C -869.5503 -3428.389 -871.2695 -3430.1083 -871.2695 -3432.229 L -871.2695 -3448.549 C -871.2695 -3450.67 -869.5503 -3452.389 -867.4295 -3452.389 Z" stroke="black" stroke-linecap="round" stroke-linejoin="round" stroke-width=".25"/>
      </g>
      <g id="Group_9887">
        <title>distribute-h</title>
        <g id="Graphic_9888">
          <path d="M -861.2695 -3445.889 L -861.2695 -3434.889 C -861.2695 -3434.059 -860.5995 -3433.389 -859.7695 -3433.389 L -858.7695 -3433.389 C -857.9395 -3433.389 -857.2695 -3434.059 -857.2695 -3434.889 L -857.2695 -3445.889 C -857.2695 -3446.719 -857.9395 -3447.389 -858.7695 -3447.389 L -859.7695 -3447.389 C -860.5995 -3447.389 -861.2695 -3446.719 -861.2695 -3445.889 Z M -862.2695 -3445.889 C -862.2695 -3447.269 -861.1495 -3448.389 -859.7695 -3448.389 L -858.7695 -3448.389 C -857.3895 -3448.389 -856.2695 -3447.269 -856.2695 -3445.889 L -856.2695 -3434.889 C -856.2695 -3433.509 -857.3895 -3432.389 -858.7695 -3432.389 L -859.7695 -3432.389 C -861.1495 -3432.389 -862.2695 -3433.509 -862.2695 -3434.889 Z" fill="#66727e"/>
        </g>
      </g>
      <g id="Group_9893">
        <title>close</title>
        <g id="Graphic_9894">
          <path d="M -859.2163 -3441.179 L -855.0745 -3445.3108 C -854.8749 -3445.5104 -854.5656 -3445.5104 -854.366 -3445.3108 C -854.1664 -3445.111 -854.1664 -3444.8018 -854.366 -3444.602 L -858.5077 -3440.4605 L -854.366 -3436.3188 C -854.1664 -3436.119 -854.1664 -3435.8098 -854.366 -3435.61 C -854.5656 -3435.4106 -854.8749 -3435.4106 -855.0745 -3435.61 L -859.2163 -3439.752 L -863.358 -3435.63 C -863.5576 -3435.4305 -863.867 -3435.4305 -864.0666 -3435.63 C -864.2662 -3435.8297 -864.2662 -3436.139 -864.0666 -3436.3387 L -859.9248 -3440.4804 L -864.0566 -3444.612 C -864.2562 -3444.8018 -864.2562 -3445.121 -864.0566 -3445.3108 C -863.867 -3445.5104 -863.5476 -3445.5104 -863.358 -3445.3108 L -859.2163 -3441.169 Z" fill="#9f4c4d"/>
        </g>
      </g>
    </g>
  </g>
</svg>
